X: 3367
T: O THIS IS NO MY AIN LASSIE
%R: air, march, reel
B: James Kerr "Merry Melodies" v.3 p.41 #367
Z: 2016 John Chambers <jc:trillian.mit.edu>
M: 2/4
L: 1/16
K: D
(AG) |\
F2A2A2a2 | g2f2e2d2 | Bcdc BAGF | B2E2E2 (AG) |\
F2A2A2a2 | g2f2e2d2 | BcdB ABAG | F2D2D2 :|
|: (AG) |\
F2A2A2d2 | B2d2A3F | G2B2A2F2 | B2E2E2 (AG) |\
F2A2A2d2 | B2d2A3F | GFGB ABAG | F2D2D2 :|

%%sep 1 1 500
%%sep 1 1 500

